X: 38610
T: Stoney Brennan
R: reel
M: 4/4
K: Gmajor
DG3 AGGE|DEGA B2 Bd|ed3 Bgdg|egdB AGEG|
DG3 AGGE|DEGA B2 Bd|edgd e2 dB|1 BAFA G2 GE:|2 BAFA G2 A/B/c||
|:d2 Bd edBd|g2 fg edeg|bagf gfed|e2 dB AGEG|
DG3 AGGE|DEDA B2 Bd|egdg e2 dB|1 BAFA G2 A/B/c:|2 BAFA G2 GE||

